X:52
%%etbk:tnset id:18,pos:1,rep:3
%%etbk:site1 http://www.thesession.org/tunes/display/1341
T: Sailing Into Walpole's Marsh
M: 4/4
L: 1/8
R: reel
K: Ador
~A3G ABcA|GE~E2 GED2|EA{B}AG ABcd|edgd (3ABc dB|
AG~G2 AG~G2|{A}GEDE GED2|A2{B}AG ABcd|eBdB {c}BAdB|
~A3B c3A|GE~E2 GED2|EA{B}AG ABcd|edgd (3ABc dB|
AG~G2 AG~G2|{A}GEDE GED2|A2{B}AG ABcd|eBdB {c}BAA2||
|:eg~g2 ea~a2|gedB cAA2|eg~g2 eaab|age^c d2ef|
~g3e ~a3f|gedB cAAB|c2gc acgc|1 eage (3ded cd:|2 eage cd{e}dc||

